X: 126
T:Laura's Waltz
M:3/4
L:1/4
K:Am
|:c/d/|"Am"e A A|"Em"B E E|"F"A F F|"C"G E E|
"Dm"F D D|"Am"E A, C|[1 "Bm"D3/2C/ D|"E"E2:|[2 "E7"B,3/2C/ B,|"Am"A,3/2B,/ C/D/||
"C"E C E|"D"^F D F|"E"^G2 A|B2 A/B/|
"F"c2 c|"G"d c d|"C"e3/2d/ c|"E"B2 c/d/|
"Am"e A A|"Em"B E E|"F"A F F|"C"G E E|
"Dm"F D D|"Am"E A, C|"E7"B,3/2C/ B,|"Am"A,2||

